report_00007_2020-12-11T15:55:29.892Z/largest-contentful-paint/samples/pages+cached+noexternal+nofonts/score/values.svg

<svg width="640" height="490" xmlns="http://www.w3.org/2000/svg" xmlns:xlink="http://www.w3.org/1999/xlink"><path fill="#fff" d="M0 0h640v490H0z"/><defs><path id="d" stroke-width=".222" stroke="currentColor" d="M-1-1h2v2h-2z"/><path id="b" stroke-width=".222" stroke="currentColor" d="M0-1.33l-1.33 2h2.66z"/><path id="f" stroke-width=".222" stroke="currentColor" d="M0 1.33L1.265.411.782-1.067l-1.564-.009-.483 1.487z"/><use xlink:href="#b" id="c" stroke="currentColor" transform="rotate(180)"/><use xlink:href="#d" id="e" stroke="currentColor" transform="rotate(45)"/><circle id="a" stroke-width=".222" stroke="currentColor" cx="0" cy="0" r="1"/></defs><g fill="none" color="#000" stroke="currentColor"><path stroke="#000" d="M62.2 400.2h9m543.8 0h-9"/><text transform="translate(53.9 404.1)" stroke="none" fill="#000" font-family="Arial" font-size="12" text-anchor="end"><tspan>0.06</tspan></text></g><g fill="none" color="#000" stroke="currentColor"><path stroke="#000" d="M62.2 334.9h9m543.8 0h-9"/><text transform="translate(53.9 338.8)" stroke="none" fill="#000" font-family="Arial" font-size="12" text-anchor="end"><tspan>0.07</tspan></text></g><g fill="none" color="#000" stroke="currentColor"><path stroke="#000" d="M62.2 269.7h9m543.8 0h-9"/><text transform="translate(53.9 273.6)" stroke="none" fill="#000" font-family="Arial" font-size="12" text-anchor="end"><tspan>0.08</tspan></text></g><g fill="none" color="#000" stroke="currentColor"><path stroke="#000" d="M62.2 204.4h9m543.8 0h-9"/><text transform="translate(53.9 208.3)" stroke="none" fill="#000" font-family="Arial" font-size="12" text-anchor="end"><tspan>0.09</tspan></text></g><g fill="none" color="#000" stroke="currentColor"><path stroke="#000" d="M62.2 139.1h9m543.8 0h-9"/><text transform="translate(53.9 143)" stroke="none" fill="#000" font-family="Arial" font-size="12" text-anchor="end"><tspan>0.1</tspan></text></g><g fill="none" color="#000" stroke="currentColor"><path stroke="#000" d="M62.2 73.9h9m543.8 0h-9"/><text transform="translate(53.9 77.8)" stroke="none" fill="#000" font-family="Arial" font-size="12" text-anchor="end"><tspan>0.11</tspan></text></g><g fill="none" color="#000" stroke="currentColor"><path stroke="#000" d="M62.2 436v-9m0-408.9v9"/><text transform="translate(62.2 457.9)" stroke="none" fill="#000" font-family="Arial" font-size="12" text-anchor="middle"><tspan>0</tspan></text></g><g fill="none" color="#000" stroke="currentColor"><path stroke="#000" d="M118 436v-9m0-408.9v9"/><text transform="translate(118 457.9)" stroke="none" fill="#000" font-family="Arial" font-size="12" text-anchor="middle"><tspan>10</tspan></text></g><g fill="none" color="#000" stroke="currentColor"><path stroke="#000" d="M173.9 436v-9m0-408.9v9"/><text transform="translate(173.9 457.9)" stroke="none" fill="#000" font-family="Arial" font-size="12" text-anchor="middle"><tspan>20</tspan></text></g><g fill="none" color="#000" stroke="currentColor"><path stroke="#000" d="M229.7 436v-9m0-408.9v9"/><text transform="translate(229.7 457.9)" stroke="none" fill="#000" font-family="Arial" font-size="12" text-anchor="middle"><tspan>30</tspan></text></g><g fill="none" color="#000" stroke="currentColor"><path stroke="#000" d="M285.6 436v-9m0-408.9v9"/><text transform="translate(285.6 457.9)" stroke="none" fill="#000" font-family="Arial" font-size="12" text-anchor="middle"><tspan>40</tspan></text></g><g fill="none" color="#000" stroke="currentColor"><path stroke="#000" d="M341.4 436v-9m0-408.9v9"/><text transform="translate(341.4 457.9)" stroke="none" fill="#000" font-family="Arial" font-size="12" text-anchor="middle"><tspan>50</tspan></text></g><g fill="none" color="#000" stroke="currentColor"><path stroke="#000" d="M397.2 436v-9m0-408.9v9"/><text transform="translate(397.2 457.9)" stroke="none" fill="#000" font-family="Arial" font-size="12" text-anchor="middle"><tspan>60</tspan></text></g><g fill="none" color="#000" stroke="currentColor"><path stroke="#000" d="M453.1 436v-9m0-408.9v9"/><text transform="translate(453.1 457.9)" stroke="none" fill="#000" font-family="Arial" font-size="12" text-anchor="middle"><tspan>70</tspan></text></g><g fill="none" color="#000" stroke="currentColor"><path stroke="#000" d="M508.9 436v-9m0-408.9v9"/><text transform="translate(508.9 457.9)" stroke="none" fill="#000" font-family="Arial" font-size="12" text-anchor="middle"><tspan>80</tspan></text></g><g fill="none" color="#000" stroke="currentColor"><path stroke="#000" d="M564.7 436v-9m0-408.9v9"/><text transform="translate(564.7 457.9)" stroke="none" fill="#000" font-family="Arial" font-size="12" text-anchor="middle"><tspan>90</tspan></text></g><path stroke="#000" d="M62.2 18.1V436H615V18.1H62.2z" fill="none" color="#000"/><text transform="translate(329.9 475.9)" stroke="none" fill="#000" font-family="Arial" font-size="12" text-anchor="end" color="#000"><tspan>score</tspan></text><path stroke="#9400D3" d="M338.2 472h42.2M62.2 68.8l5.6 41.7 5.6 295.4L79 68.7l5.5-.8 5.6 41.4 5.6-3 5.6 295.3 5.6-332.8 5.6 40.7 5.5 316 5.6-317.1 5.6-1.1 5.6.5 5.6 296.9 5.6-296 5.5 318.6 5.6-.3 5.6-.2 5.6-324.4 5.6 6.3 5.6-34.9 5.5 39.9 5.6 311.1 5.6-20.2 5.6-337.9 5.6 359 5.6-318.1 5.5 1.3 5.6 317.6 5.6-317.7 5.6-3.7 5.6 320.1 5.6-356.7 5.6 37.5 5.5 1.9 5.6.1 5.6-38.8 5.6 41.8 5.6-.6 5.6-1.6 5.5.4 5.6-5 5.6 300.6 5.6 1 5.6-299.9 5.6 2.6 5.5 2.8 5.6-3.5 5.6-3.2 5.6 1.5 5.6 298.4 5.6-295.8 5.5-40.2 5.6 33.2 5.6 322.1 5.6-318.4 5.6-2.5 5.6 6.4 5.5-2 5.6-39.3 5.6 40.8 5.6 1.8 5.6-2.6 5.6-.1 5.5-3.7 5.6.3 5.6 323.3 5.6-318 5.6 294.3 5.6-296 5.6.7 5.5 318.1 5.6-360.1 5.6 36L481 406l5.6-302.7 5.6-77.2 5.5 81.5 5.6 296.9 5.6 23.5 5.6-2.3 5.6-318.9 5.6.7 5.5-76.2 5.6 78.6 5.6-7 5.6 5.5 5.6 317.4 5.6-318.7 5.5 2 5.6.9 5.6 296 5.6-295.6 5.6-1.9 5.6-1.5 5.5 319.3L603.8 68l5.6 358.9L615 71.3" fill="none" color="#000"/><g fill="none" color="#000" stroke="currentColor"><path stroke="#000" d="M62.2 18.1V436H615V18.1H62.2z"/></g></svg>

<?xml version="1.0" encoding="utf-8"  standalone="no"?>
<svg 
 width="640" height="490"
 viewBox="0 0 640 490"
 xmlns="http://www.w3.org/2000/svg"
 xmlns:xlink="http://www.w3.org/1999/xlink"
>

<title>Gnuplot</title>
<desc>Produced by GNUPLOT 5.4 patchlevel 0 </desc>

<g id="gnuplot_canvas">

<rect x="0" y="0" width="640" height="490" fill="#ffffff"/>
<defs>

	<circle id='gpDot' r='0.5' stroke-width='0.5' stroke='currentColor'/>
	<path id='gpPt0' stroke-width='0.222' stroke='currentColor' d='M-1,0 h2 M0,-1 v2'/>
	<path id='gpPt1' stroke-width='0.222' stroke='currentColor' d='M-1,-1 L1,1 M1,-1 L-1,1'/>
	<path id='gpPt2' stroke-width='0.222' stroke='currentColor' d='M-1,0 L1,0 M0,-1 L0,1 M-1,-1 L1,1 M-1,1 L1,-1'/>
	<rect id='gpPt3' stroke-width='0.222' stroke='currentColor' x='-1' y='-1' width='2' height='2'/>
	<rect id='gpPt4' stroke-width='0.222' stroke='currentColor' fill='currentColor' x='-1' y='-1' width='2' height='2'/>
	<circle id='gpPt5' stroke-width='0.222' stroke='currentColor' cx='0' cy='0' r='1'/>
	<use xlink:href='#gpPt5' id='gpPt6' fill='currentColor' stroke='none'/>
	<path id='gpPt7' stroke-width='0.222' stroke='currentColor' d='M0,-1.33 L-1.33,0.67 L1.33,0.67 z'/>
	<use xlink:href='#gpPt7' id='gpPt8' fill='currentColor' stroke='none'/>
	<use xlink:href='#gpPt7' id='gpPt9' stroke='currentColor' transform='rotate(180)'/>
	<use xlink:href='#gpPt9' id='gpPt10' fill='currentColor' stroke='none'/>
	<use xlink:href='#gpPt3' id='gpPt11' stroke='currentColor' transform='rotate(45)'/>
	<use xlink:href='#gpPt11' id='gpPt12' fill='currentColor' stroke='none'/>
	<path id='gpPt13' stroke-width='0.222' stroke='currentColor' d='M0,1.330 L1.265,0.411 L0.782,-1.067 L-0.782,-1.076 L-1.265,0.411 z'/>
	<use xlink:href='#gpPt13' id='gpPt14' fill='currentColor' stroke='none'/>
	<filter id='textbox' filterUnits='objectBoundingBox' x='0' y='0' height='1' width='1'>
	  <feFlood flood-color='#FFFFFF' flood-opacity='1' result='bgnd'/>
	  <feComposite in='SourceGraphic' in2='bgnd' operator='atop'/>
	</filter>
	<filter id='greybox' filterUnits='objectBoundingBox' x='0' y='0' height='1' width='1'>
	  <feFlood flood-color='lightgrey' flood-opacity='1' result='grey'/>
	  <feComposite in='SourceGraphic' in2='grey' operator='atop'/>
	</filter>
</defs>
<g fill="none" color="#FFFFFF" stroke="black" stroke-width="1.00" stroke-linecap="butt" stroke-linejoin="miter">
</g>
<g fill="none" color="black" stroke="currentColor" stroke-width="1.00" stroke-linecap="butt" stroke-linejoin="miter">
	<path stroke='black'  d='M62.2,400.2 L71.2,400.2 M615.0,400.2 L606.0,400.2  '/>	<g transform="translate(53.9,404.1)" stroke="none" fill="black" font-family="Arial" font-size="12.00"  text-anchor="end">
		<text><tspan font-family="Arial" > 0.06</tspan></text>
	</g>
</g>
<g fill="none" color="black" stroke="currentColor" stroke-width="1.00" stroke-linecap="butt" stroke-linejoin="miter">
	<path stroke='black'  d='M62.2,334.9 L71.2,334.9 M615.0,334.9 L606.0,334.9  '/>	<g transform="translate(53.9,338.8)" stroke="none" fill="black" font-family="Arial" font-size="12.00"  text-anchor="end">
		<text><tspan font-family="Arial" > 0.07</tspan></text>
	</g>
</g>
<g fill="none" color="black" stroke="currentColor" stroke-width="1.00" stroke-linecap="butt" stroke-linejoin="miter">
	<path stroke='black'  d='M62.2,269.7 L71.2,269.7 M615.0,269.7 L606.0,269.7  '/>	<g transform="translate(53.9,273.6)" stroke="none" fill="black" font-family="Arial" font-size="12.00"  text-anchor="end">
		<text><tspan font-family="Arial" > 0.08</tspan></text>
	</g>
</g>
<g fill="none" color="black" stroke="currentColor" stroke-width="1.00" stroke-linecap="butt" stroke-linejoin="miter">
	<path stroke='black'  d='M62.2,204.4 L71.2,204.4 M615.0,204.4 L606.0,204.4  '/>	<g transform="translate(53.9,208.3)" stroke="none" fill="black" font-family="Arial" font-size="12.00"  text-anchor="end">
		<text><tspan font-family="Arial" > 0.09</tspan></text>
	</g>
</g>
<g fill="none" color="black" stroke="currentColor" stroke-width="1.00" stroke-linecap="butt" stroke-linejoin="miter">
	<path stroke='black'  d='M62.2,139.1 L71.2,139.1 M615.0,139.1 L606.0,139.1  '/>	<g transform="translate(53.9,143.0)" stroke="none" fill="black" font-family="Arial" font-size="12.00"  text-anchor="end">
		<text><tspan font-family="Arial" > 0.1</tspan></text>
	</g>
</g>
<g fill="none" color="black" stroke="currentColor" stroke-width="1.00" stroke-linecap="butt" stroke-linejoin="miter">
	<path stroke='black'  d='M62.2,73.9 L71.2,73.9 M615.0,73.9 L606.0,73.9  '/>	<g transform="translate(53.9,77.8)" stroke="none" fill="black" font-family="Arial" font-size="12.00"  text-anchor="end">
		<text><tspan font-family="Arial" > 0.11</tspan></text>
	</g>
</g>
<g fill="none" color="black" stroke="currentColor" stroke-width="1.00" stroke-linecap="butt" stroke-linejoin="miter">
	<path stroke='black'  d='M62.2,436.0 L62.2,427.0 M62.2,18.1 L62.2,27.1  '/>	<g transform="translate(62.2,457.9)" stroke="none" fill="black" font-family="Arial" font-size="12.00"  text-anchor="middle">
		<text><tspan font-family="Arial" > 0</tspan></text>
	</g>
</g>
<g fill="none" color="black" stroke="currentColor" stroke-width="1.00" stroke-linecap="butt" stroke-linejoin="miter">
	<path stroke='black'  d='M118.0,436.0 L118.0,427.0 M118.0,18.1 L118.0,27.1  '/>	<g transform="translate(118.0,457.9)" stroke="none" fill="black" font-family="Arial" font-size="12.00"  text-anchor="middle">
		<text><tspan font-family="Arial" > 10</tspan></text>
	</g>
</g>
<g fill="none" color="black" stroke="currentColor" stroke-width="1.00" stroke-linecap="butt" stroke-linejoin="miter">
	<path stroke='black'  d='M173.9,436.0 L173.9,427.0 M173.9,18.1 L173.9,27.1  '/>	<g transform="translate(173.9,457.9)" stroke="none" fill="black" font-family="Arial" font-size="12.00"  text-anchor="middle">
		<text><tspan font-family="Arial" > 20</tspan></text>
	</g>
</g>
<g fill="none" color="black" stroke="currentColor" stroke-width="1.00" stroke-linecap="butt" stroke-linejoin="miter">
	<path stroke='black'  d='M229.7,436.0 L229.7,427.0 M229.7,18.1 L229.7,27.1  '/>	<g transform="translate(229.7,457.9)" stroke="none" fill="black" font-family="Arial" font-size="12.00"  text-anchor="middle">
		<text><tspan font-family="Arial" > 30</tspan></text>
	</g>
</g>
<g fill="none" color="black" stroke="currentColor" stroke-width="1.00" stroke-linecap="butt" stroke-linejoin="miter">
	<path stroke='black'  d='M285.6,436.0 L285.6,427.0 M285.6,18.1 L285.6,27.1  '/>	<g transform="translate(285.6,457.9)" stroke="none" fill="black" font-family="Arial" font-size="12.00"  text-anchor="middle">
		<text><tspan font-family="Arial" > 40</tspan></text>
	</g>
</g>
<g fill="none" color="black" stroke="currentColor" stroke-width="1.00" stroke-linecap="butt" stroke-linejoin="miter">
	<path stroke='black'  d='M341.4,436.0 L341.4,427.0 M341.4,18.1 L341.4,27.1  '/>	<g transform="translate(341.4,457.9)" stroke="none" fill="black" font-family="Arial" font-size="12.00"  text-anchor="middle">
		<text><tspan font-family="Arial" > 50</tspan></text>
	</g>
</g>
<g fill="none" color="black" stroke="currentColor" stroke-width="1.00" stroke-linecap="butt" stroke-linejoin="miter">
	<path stroke='black'  d='M397.2,436.0 L397.2,427.0 M397.2,18.1 L397.2,27.1  '/>	<g transform="translate(397.2,457.9)" stroke="none" fill="black" font-family="Arial" font-size="12.00"  text-anchor="middle">
		<text><tspan font-family="Arial" > 60</tspan></text>
	</g>
</g>
<g fill="none" color="black" stroke="currentColor" stroke-width="1.00" stroke-linecap="butt" stroke-linejoin="miter">
	<path stroke='black'  d='M453.1,436.0 L453.1,427.0 M453.1,18.1 L453.1,27.1  '/>	<g transform="translate(453.1,457.9)" stroke="none" fill="black" font-family="Arial" font-size="12.00"  text-anchor="middle">
		<text><tspan font-family="Arial" > 70</tspan></text>
	</g>
</g>
<g fill="none" color="black" stroke="currentColor" stroke-width="1.00" stroke-linecap="butt" stroke-linejoin="miter">
	<path stroke='black'  d='M508.9,436.0 L508.9,427.0 M508.9,18.1 L508.9,27.1  '/>	<g transform="translate(508.9,457.9)" stroke="none" fill="black" font-family="Arial" font-size="12.00"  text-anchor="middle">
		<text><tspan font-family="Arial" > 80</tspan></text>
	</g>
</g>
<g fill="none" color="black" stroke="currentColor" stroke-width="1.00" stroke-linecap="butt" stroke-linejoin="miter">
	<path stroke='black'  d='M564.7,436.0 L564.7,427.0 M564.7,18.1 L564.7,27.1  '/>	<g transform="translate(564.7,457.9)" stroke="none" fill="black" font-family="Arial" font-size="12.00"  text-anchor="middle">
		<text><tspan font-family="Arial" > 90</tspan></text>
	</g>
</g>
<g fill="none" color="black" stroke="currentColor" stroke-width="1.00" stroke-linecap="butt" stroke-linejoin="miter">
</g>
<g fill="none" color="black" stroke="currentColor" stroke-width="1.00" stroke-linecap="butt" stroke-linejoin="miter">
	<path stroke='black'  d='M62.2,18.1 L62.2,436.0 L615.0,436.0 L615.0,18.1 L62.2,18.1 Z  '/></g>
<g fill="none" color="black" stroke="currentColor" stroke-width="1.00" stroke-linecap="butt" stroke-linejoin="miter">
</g>
	<g id="gnuplot_plot_1" ><title>score</title>
<g fill="none" color="black" stroke="currentColor" stroke-width="1.00" stroke-linecap="butt" stroke-linejoin="miter">
	<g transform="translate(329.9,475.9)" stroke="none" fill="black" font-family="Arial" font-size="12.00"  text-anchor="end">
		<text><tspan font-family="Arial" >score</tspan></text>
	</g>
</g>
<g fill="none" color="black" stroke="currentColor" stroke-width="1.00" stroke-linecap="butt" stroke-linejoin="miter">
	<path stroke='rgb(148,   0, 211)'  d='M338.2,472.0 L380.4,472.0 M62.2,68.8 L67.8,110.5 L73.4,405.9 L79.0,68.7 L84.5,67.9 L90.1,109.3
		L95.7,106.3 L101.3,401.6 L106.9,68.8 L112.5,109.5 L118.0,425.5 L123.6,108.4 L129.2,107.3 L134.8,107.8
		L140.4,404.7 L146.0,108.7 L151.5,427.3 L157.1,427.0 L162.7,426.8 L168.3,102.4 L173.9,108.7 L179.5,73.8
		L185.0,113.7 L190.6,424.8 L196.2,404.6 L201.8,66.7 L207.4,425.7 L213.0,107.6 L218.5,108.9 L224.1,426.5
		L229.7,108.8 L235.3,105.1 L240.9,425.2 L246.5,68.5 L252.1,106.0 L257.6,107.9 L263.2,108.0 L268.8,69.2
		L274.4,111.0 L280.0,110.4 L285.6,108.8 L291.1,109.2 L296.7,104.2 L302.3,404.8 L307.9,405.8 L313.5,105.9
		L319.1,108.5 L324.6,111.3 L330.2,107.8 L335.8,104.6 L341.4,106.1 L347.0,404.5 L352.6,108.7 L358.1,68.5
		L363.7,101.7 L369.3,423.8 L374.9,105.4 L380.5,102.9 L386.1,109.3 L391.6,107.3 L397.2,68.0 L402.8,108.8
		L408.4,110.6 L414.0,108.0 L419.6,107.9 L425.1,104.2 L430.7,104.5 L436.3,427.8 L441.9,109.8 L447.5,404.1
		L453.1,108.1 L458.7,108.8 L464.2,426.9 L469.8,66.8 L475.4,102.8 L481.0,406.0 L486.6,103.3 L492.2,26.1
		L497.7,107.6 L503.3,404.5 L508.9,428.0 L514.5,425.7 L520.1,106.8 L525.7,107.5 L531.2,31.3 L536.8,109.9
		L542.4,102.9 L548.0,108.4 L553.6,425.8 L559.2,107.1 L564.7,109.1 L570.3,110.0 L575.9,406.0 L581.5,110.4
		L587.1,108.5 L592.7,107.0 L598.2,426.3 L603.8,68.0 L609.4,426.9 L615.0,71.3  '/></g>
	</g>
<g fill="none" color="#FFFFFF" stroke="rgb(148,   0, 211)" stroke-width="2.00" stroke-linecap="butt" stroke-linejoin="miter">
</g>
<g fill="none" color="black" stroke="currentColor" stroke-width="2.00" stroke-linecap="butt" stroke-linejoin="miter">
</g>
<g fill="none" color="black" stroke="black" stroke-width="1.00" stroke-linecap="butt" stroke-linejoin="miter">
</g>
<g fill="none" color="black" stroke="currentColor" stroke-width="1.00" stroke-linecap="butt" stroke-linejoin="miter">
	<path stroke='black'  d='M62.2,18.1 L62.2,436.0 L615.0,436.0 L615.0,18.1 L62.2,18.1 Z  '/></g>
<g fill="none" color="black" stroke="currentColor" stroke-width="1.00" stroke-linecap="butt" stroke-linejoin="miter">
</g>
</g>
</svg>
